X: 07062
T: JASON'S REEL
C: Bob McQuillen 9 Oct 88
B: Bob's Note Book 7 #62
%R: reel
Z: 2020 John Chambers <jc:trillian.mit.edu>
M: C
L: 1/8
K: D
DE \
| FBAF ABdA | BdAF BAFE | FAFD EDB,D | A,B,DE FDEF |
| DFED B,2DE | FDED B,A,FE | DFAF AdAF | EDEF D2  :|
|: de \
| fded B2de | fedB AFdB | ABdf edfe | dfed B2de |
| fded BAdB | ABAF EDFA | BABd AFdB | AFEF D2  :|
%%begintext align
%% Jason Little lives
%% over in Marlow, N.H., the "Icebox of the Monadnock
%% Region." Jason's a great musician. He and Harvey Tolman
%% made a super tape of Cape Breton tunes. This tune is supposed
%% to be that style, also. Jason, I began this tune in June 84 according
%% to my notes. I guess it's about time I finally finished it!
%% Hope you like it!
%%endtext

%%sep 1 1 500

%%sep 1 1 500

